svgs/google_webview_devtools_beta.svg

<svg xmlns="http://www.w3.org/2000/svg" viewBox="0 0 192 192"><path d="m163.408 127.477 4.614-7.991c.97-1.668.543-3.764-.932-4.967l-16.378-12.844c.31-2.483.543-5.005.543-7.567 0-2.561-.233-5.083-.543-7.567l16.417-12.844c1.475-1.164 1.902-3.259.932-4.967l-15.525-26.891c-.97-1.669-2.988-2.367-4.735-1.669l-19.328 7.8c-3.998-3.065-8.383-5.665-13.118-7.644l-2.912-20.566c-.349-1.824-1.94-3.26-3.881-3.26H77.513c-1.941 0-3.532 1.436-3.842 3.26L70.76 40.326a57.43 57.43 0 0 0-13.119 7.644l-19.328-7.8a3.883 3.883 0 0 0-4.735 1.669L18.053 68.73c-.97 1.669-.543 3.764.932 4.967l16.378 12.844a61.008 61.008 0 0 0-.543 7.567c0 2.561.233 5.083.543 7.567l-16.378 12.844c-1.475 1.164-1.902 3.26-.932 4.967l15.525 26.891c.97 1.669 2.989 2.367 4.735 1.669l19.328-7.8c3.998 3.065 8.384 5.665 13.119 7.644l2.911 20.567c.31 1.823 1.901 3.259 3.842 3.259h31.049c1.941 0 3.532-1.436 3.842-3.259l2.912-20.567a57.364 57.364 0 0 0 6.499-3.205" fill="none" stroke="#000" stroke-width="12" stroke-linecap="round" stroke-linejoin="round"/><path d="M93.038 59.037a35.09 35.09 0 0 0-24.804 10.272 35.08 35.08 0 0 0-10.275 24.799 35.08 35.08 0 0 0 68.44 10.838 35.069 35.069 0 0 0-33.361-45.909Zm0 0h68.686m-42.119 57.998L74.726 170.51M35.363 86.541l28.365 26.843" fill="none" stroke="#000" stroke-width="12" stroke-linecap="round" stroke-linejoin="round"/><path d="M151.263 149a7.571 7.571 0 1 1 0 15.143h-12.495v-30.286h12.495a7.571 7.571 0 1 1 0 15.143Zm0 0h-12.495" fill="none" stroke="#000" stroke-width="8" stroke-linecap="round" stroke-linejoin="round"/><path d="M147.961 122.499A26.507 26.507 0 0 0 121.455 149a26.506 26.506 0 0 0 53.011 0 26.507 26.507 0 0 0-26.505-26.501Z" fill="none" stroke="#000" stroke-width="8" stroke-linecap="round" stroke-linejoin="round"/></svg>

<svg
    xmlns="http://www.w3.org/2000/svg"
    viewBox="0 0 192 192"
    id="vector">
    <path
        id="path"
        d="M 163.408 127.477 L 168.022 119.486 C 168.992 117.818 168.565 115.722 167.09 114.519 L 150.712 101.675 C 151.022 99.192 151.255 96.67 151.255 94.108 C 151.255 91.547 151.022 89.025 150.712 86.541 L 167.129 73.697 C 168.604 72.533 169.031 70.438 168.061 68.73 L 152.536 41.839 C 151.566 40.17 149.548 39.472 147.801 40.17 L 128.473 47.97 C 124.475 44.905 120.09 42.305 115.355 40.326 L 112.443 19.76 C 112.094 17.936 110.503 16.5 108.562 16.5 L 77.513 16.5 C 75.572 16.5 73.981 17.936 73.671 19.76 L 70.76 40.326 C 66.068 42.282 61.656 44.853 57.641 47.97 L 38.313 40.17 C 36.539 39.494 34.536 40.2 33.578 41.839 L 18.053 68.73 C 17.083 70.399 17.51 72.494 18.985 73.697 L 35.363 86.541 C 35.025 89.05 34.844 91.577 34.82 94.108 C 34.82 96.669 35.053 99.191 35.363 101.675 L 18.985 114.519 C 17.51 115.683 17.083 117.779 18.053 119.486 L 33.578 146.377 C 34.548 148.046 36.567 148.744 38.313 148.046 L 57.641 140.246 C 61.639 143.311 66.025 145.911 70.76 147.89 L 73.671 168.457 C 73.981 170.28 75.572 171.716 77.513 171.716 L 108.562 171.716 C 110.503 171.716 112.094 170.28 112.404 168.457 L 115.316 147.89 C 117.55 146.959 119.72 145.888 121.815 144.685"
        fill="none"
        stroke="#000000"
        stroke-width="12"
        stroke-linecap="round"
        stroke-linejoin="round"/>
    <path
        id="path_1"
        d="M 93.038 59.037 C 83.738 59.037 74.809 62.734 68.234 69.309 C 61.658 75.884 57.959 84.81 57.959 94.108 C 57.959 103.406 61.658 112.333 68.234 118.907 C 74.809 125.482 83.738 129.179 93.038 129.179 C 100.444 129.179 107.664 126.834 113.656 122.481 C 119.648 118.129 124.11 111.988 126.399 104.946 C 128.688 97.903 128.688 90.313 126.399 83.27 C 124.11 76.228 119.648 70.087 113.656 65.735 C 107.664 61.382 100.444 59.037 93.038 59.037 Z M 93.038 59.037 L 161.724 59.037 M 119.605 117.035 L 74.726 170.51 M 35.363 86.541 L 63.728 113.384"
        fill="none"
        stroke="#000000"
        stroke-width="12"
        stroke-linecap="round"
        stroke-linejoin="round"/>
    <path
        id="path_2"
        d="M 151.263 149 C 155.446 149 158.836 152.389 158.836 156.571 C 158.836 160.753 155.446 164.143 151.263 164.143 L 138.768 164.143 L 138.768 133.857 L 151.263 133.857 C 155.446 133.857 158.836 137.246 158.836 141.428 C 158.836 145.61 155.446 149 151.263 149 Z M 151.263 149 L 138.768 149"
        fill="none"
        stroke="#000000"
        stroke-width="8"
        stroke-linecap="round"
        stroke-linejoin="round"/>
    <path
        id="path_3"
        d="M 147.961 122.499 C 140.934 122.499 134.187 125.293 129.218 130.261 C 124.249 135.229 121.455 141.974 121.455 149 C 121.455 156.025 124.249 162.77 129.218 167.738 C 134.187 172.706 140.934 175.5 147.961 175.5 C 154.988 175.5 161.734 172.706 166.703 167.738 C 171.672 162.77 174.466 156.025 174.466 149 C 174.466 141.974 171.672 135.229 166.703 130.261 C 161.734 125.293 154.988 122.499 147.961 122.499 Z"
        fill="none"
        stroke="#000000"
        stroke-width="8"
        stroke-linecap="round"
        stroke-linejoin="round"/>
</svg>
